X: 203
T: Foolish You
M:4/4
R:reel
L:1/8
Z:Alf Warnock - alf0@rogers.com
K:F
P:Verse
FG|"F"A3F "C7"ECEG|"F"A6AA|"G7"G3A GDGF|"C7"E6FG|
"F"A2c2 "D7"d2A2|"Gm"G3A B2F2|"C7"E3E EBAG|"F"F6FF|
P:Chorus
"C7"E3E EEDD|"F"C6cc|"Bb"B3B BBcd|"F"c6Bc|
"Bb"d3f g2fd|"F"c2"Dbdim"B2 "D7"A2DD|"Gm"BB3-BBAB|"F7"c6f_e|
"Bb"d3f g2fd|"F"c2"Dbdim"B2 "D7"A2DD|"Gm"BB3-BBAB|"F"F6z2|

